;FLAVOR:Marlin
;TIME:4491
;Filament used: 5.90755m
;Layer height: 0.28
;MINX:61
;MINY:61
;MINZ:0.28
;MAXX:159
;MAXY:159
;MAXZ:2.16
;TARGET_MACHINE.NAME:Artillery Genius
;Generated with Cura_SteamEngine 5.8.1
M140 S60
M105
M190 S60
M104 S210
M105
M109 S210
M82 ;absolute extrusion mode
G28 ; home all axes
 M117 Purge extruder
 G92 E0 ; reset extruder
 G1 Z1.0 F3000 ; move z up little to prevent scratching of surface
 G1 X2 Y20 Z0.3 F5000.0 ; move to start-line position
 G1 X2 Y200.0 Z0.3 F1500.0 E15 ; draw 1st line
 G1 X2 Y200.0 Z0.4 F5000.0 ; move to side a little
 G1 X2 Y20 Z0.4 F1500.0 E30 ; draw 2nd line
 G92 E0 ; reset extruder
 G1 Z1.0 F3000 ; move z up little to prevent scratching of surface
G92 E0
G92 E0
G1 F1500 E-2
;LAYER_COUNT:7
;LAYER:0
M107
G1 F300 Z0.48
;MESH:PCB.stl
G0 F6000 X61.25 Y71.033 Z0.48
;TYPE:WALL-INNER
G1 F300 Z0.28
G1 F1500 E0
G1 F1200 X61.251 Y148.963 E2.72156
G1 X61.307 Y149.406 E2.73715
G1 X61.457 Y149.765 E2.75074
G1 X61.706 Y150.091 E2.76507
G1 X62.031 Y150.342 E2.77941
G1 X62.394 Y150.489 E2.79309
G1 X62.835 Y150.55 E2.80863
G1 X68.527 Y150.55 E3.00742
G1 X68.877 Y150.598 E3.01975
G1 X69.228 Y150.743 E3.03302
G1 X69.524 Y150.967 E3.04598
G1 X69.747 Y151.258 E3.05878
G1 X69.902 Y151.622 E3.0726
G1 X69.95 Y151.967 E3.08477
G1 X69.951 Y157.163 E3.26623
G1 X70.007 Y157.606 E3.28182
G1 X70.157 Y157.965 E3.29541
G1 X70.406 Y158.291 E3.30973
G1 X70.731 Y158.542 E3.32407
G1 X71.094 Y158.689 E3.33775
G1 X71.535 Y158.75 E3.3533
G1 X148.461 Y158.75 E6.0398
G1 X148.906 Y158.689 E6.05548
G1 X149.265 Y158.542 E6.06903
G1 X149.591 Y158.291 E6.0834
G1 X149.842 Y157.965 E6.09777
G1 X149.989 Y157.606 E6.11132
G1 X150.05 Y157.161 E6.127
G1 X150.05 Y151.97 E6.30829
G1 X150.093 Y151.621 E6.32057
G1 X150.253 Y151.258 E6.33442
G1 X150.473 Y150.969 E6.34711
G1 X150.754 Y150.756 E6.35942
G1 X151.124 Y150.597 E6.37348
G1 X151.469 Y150.55 E6.38564
G1 X157.161 Y150.55 E6.58443
G1 X157.606 Y150.489 E6.60011
G1 X157.965 Y150.342 E6.61366
G1 X158.291 Y150.091 E6.62803
G1 X158.542 Y149.765 E6.6424
G1 X158.689 Y149.406 E6.65595
G1 X158.75 Y148.961 E6.67163
G1 X158.75 Y71.035 E9.39305
G1 X158.69 Y70.593 E9.40863
G1 X158.542 Y70.231 E9.42229
G1 X158.292 Y69.906 E9.43661
G1 X157.965 Y69.657 E9.45096
G1 X157.606 Y69.507 E9.46455
G1 X157.163 Y69.451 E9.48014
G1 X151.465 Y69.45 E9.67914
G1 X151.124 Y69.399 E9.69118
G1 X150.787 Y69.263 E9.70387
G1 X150.472 Y69.03 E9.71755
G1 X150.238 Y68.718 E9.73117
G1 X150.092 Y68.37 E9.74435
G1 X150.05 Y68.026 E9.75645
G1 X150.05 Y62.835 E9.93774
G1 X149.99 Y62.393 E9.95332
G1 X149.842 Y62.031 E9.96698
G1 X149.592 Y61.706 E9.98129
G1 X149.265 Y61.457 E9.99565
G1 X148.906 Y61.307 E10.00924
G1 X148.463 Y61.251 E10.02483
G1 X71.533 Y61.25 E12.71147
G1 X71.094 Y61.307 E12.72693
G1 X70.731 Y61.458 E12.74066
G1 X70.406 Y61.706 E12.75493
G1 X70.158 Y62.031 E12.76921
G1 X70.007 Y62.394 E12.78294
G1 X69.95 Y62.833 E12.7984
G1 X69.95 Y68.029 E12.97986
G1 X69.902 Y68.376 E12.9921
G1 X69.753 Y68.734 E13.00564
G1 X69.521 Y69.039 E13.01902
G1 X69.209 Y69.264 E13.03246
G1 X68.876 Y69.398 E13.04499
G1 X68.563 Y69.446 E13.05605
G1 X62.833 Y69.45 E13.25616
G1 X62.394 Y69.507 E13.27162
G1 X62.031 Y69.658 E13.28535
G1 X61.706 Y69.906 E13.29963
G1 X61.458 Y70.231 E13.3139
G1 X61.307 Y70.594 E13.32763
G1 X61.25 Y71.033 E13.34309
G1 F1500 E11.34309
G1 F300 Z0.48
G0 F6000 X72.743 Y75.442 Z0.48
G1 F300 Z0.28
G1 F1500 E13.34309
G1 F1200 X72.3 Y75.502 E13.35871
G1 X71.854 Y75.446 E13.3744
G1 X71.455 Y75.273 E13.38959
G1 X71.092 Y75.002 E13.40541
G1 X70.826 Y74.65 E13.42082
G1 X70.657 Y74.237 E13.4364
G1 X70.594 Y73.8 E13.45182
G1 X70.654 Y73.357 E13.46744
G1 X70.817 Y72.966 E13.48223
G1 X71.095 Y72.593 E13.49848
G1 X71.476 Y72.312 E13.51501
G1 X71.882 Y72.151 E13.53026
G1 X72.303 Y72.094 E13.5451
G1 X72.759 Y72.163 E13.5612
G1 X73.156 Y72.326 E13.57619
G1 X73.498 Y72.592 E13.59132
G1 X73.768 Y72.947 E13.6069
G1 X73.943 Y73.359 E13.62253
G1 X74.002 Y73.8 E13.63807
G1 X73.943 Y74.236 E13.65344
G1 X73.774 Y74.65 E13.66905
G1 X73.502 Y75.009 E13.68478
G1 X73.14 Y75.276 E13.70049
G1 X72.743 Y75.442 E13.71552
G1 F1500 E11.71552
G1 F300 Z0.48
G0 F6000 X81.498 Y72.326 Z0.48
G1 F300 Z0.28
G1 F1500 E13.71552
G1 F1200 X81.906 Y72.153 E13.73099
G1 X82.348 Y72.098 E13.74655
G1 X82.79 Y72.157 E13.76212
G1 X83.199 Y72.326 E13.77758
G1 X83.552 Y72.598 E13.79314
G1 X83.813 Y72.935 E13.80803
G1 X83.994 Y73.357 E13.82406
G1 X84.046 Y73.816 E13.8402
G1 X83.996 Y74.228 E13.85469
G1 X83.828 Y74.646 E13.87042
G1 X83.555 Y75.004 E13.88614
G1 X83.188 Y75.276 E13.9021
G1 X82.786 Y75.448 E13.91737
G1 X82.347 Y75.502 E13.93281
G1 X81.898 Y75.441 E13.94864
G1 X81.508 Y75.276 E13.96343
G1 X81.146 Y75.009 E13.97914
G1 X80.876 Y74.652 E13.99477
G1 X80.705 Y74.236 E14.01048
G1 X80.646 Y73.8 E14.02584
G1 X80.705 Y73.359 E14.04138
G1 X80.871 Y72.947 E14.05689
G1 X81.15 Y72.592 E14.07266
G1 X81.498 Y72.326 E14.08796
G1 F1500 E12.08796
G1 F300 Z0.48
G0 F6000 X99.796 Y77.832 Z0.48
G1 F300 Z0.28
G1 F1500 E14.08796
G1 F1200 X99.639 Y77.458 E14.10212
G1 X99.57 Y77.006 E14.11809
G1 X99.628 Y76.577 E14.13321
G1 X99.794 Y76.169 E14.14859
G1 X100.062 Y75.804 E14.16441
G1 X100.422 Y75.528 E14.18025
G1 X100.832 Y75.358 E14.19575
G1 X101.276 Y75.293 E14.21142
G1 X101.715 Y75.357 E14.22691
G1 X102.129 Y75.522 E14.24248
G1 X102.485 Y75.803 E14.25832
G1 X102.751 Y76.155 E14.27372
G1 X102.922 Y76.557 E14.28898
G1 X102.974 Y77.02 E14.30525
G1 X102.92 Y77.446 E14.32025
G1 X102.749 Y77.852 E14.33563
G1 X102.478 Y78.208 E14.35126
G1 X102.126 Y78.474 E14.36667
G1 X101.725 Y78.64 E14.38182
G1 X101.277 Y78.702 E14.39762
G1 X100.83 Y78.647 E14.41335
G1 X100.405 Y78.457 E14.4296
G1 X100.066 Y78.196 E14.44455
G1 X99.796 Y77.832 E14.46037
G1 F1500 E12.46037
G1 F300 Z0.48
G0 F6000 X99.802 Y65.449 Z0.48
G1 F300 Z0.28
G1 F1500 E14.46037
G1 F1200 X99.635 Y65.044 E14.47567
G1 X99.569 Y64.603 E14.49125
G1 X99.63 Y64.155 E14.50703
G1 X99.803 Y63.745 E14.52258
G1 X100.064 Y63.396 E14.5378
G1 X100.425 Y63.123 E14.5536
G1 X100.835 Y62.953 E14.5691
G1 X101.276 Y62.898 E14.58462
G1 X101.711 Y62.953 E14.59994
G1 X102.127 Y63.122 E14.61562
G1 X102.482 Y63.395 E14.63126
G1 X102.748 Y63.742 E14.64653
G1 X102.924 Y64.159 E14.66233
G1 X102.978 Y64.603 E14.67795
G1 X102.918 Y65.042 E14.69343
G1 X102.751 Y65.441 E14.70853
G1 X102.485 Y65.797 E14.72405
G1 X102.128 Y66.073 E14.73981
G1 X101.715 Y66.243 E14.75541
G1 X101.276 Y66.302 E14.77088
G1 X100.832 Y66.242 E14.78652
G1 X100.422 Y66.068 E14.80208
G1 X100.062 Y65.792 E14.81792
G1 X99.802 Y65.449 E14.83295
G1 F1500 E12.83295
G1 F300 Z0.48
G0 F6000 X122.727 Y63.122 Z0.48
G1 F300 Z0.28
G1 F1500 E14.83295
G1 F1200 X123.082 Y63.395 E14.84859
G1 X123.348 Y63.742 E14.86386
G1 X123.524 Y64.159 E14.87967
G1 X123.578 Y64.603 E14.89529
G1 X123.518 Y65.042 E14.91076
G1 X123.35 Y65.451 E14.9262
G1 X123.078 Y65.809 E14.9419
G1 X122.725 Y66.074 E14.95732
G1 X122.315 Y66.243 E14.97281
G1 X121.876 Y66.302 E14.98828
G1 X121.432 Y66.242 E15.00392
G1 X121.022 Y66.068 E15.01948
G1 X120.662 Y65.792 E15.03532
G1 X120.401 Y65.441 E15.0506
G1 X120.235 Y65.044 E15.06562
G1 X120.169 Y64.603 E15.0812
G1 X120.23 Y64.155 E15.09699
G1 X120.403 Y63.745 E15.11253
G1 X120.664 Y63.396 E15.12775
G1 X121.025 Y63.123 E15.14355
G1 X121.435 Y62.953 E15.15905
G1 X121.876 Y62.898 E15.17457
G1 X122.311 Y62.953 E15.18989
G1 X122.727 Y63.122 E15.20557
G1 F1500 E13.20557
G1 F300 Z0.48
G0 F6000 X123.348 Y77.847 Z0.48
G1 F300 Z0.28
G1 F1500 E15.20557
G1 F1200 X123.083 Y78.199 E15.22095
G1 X122.731 Y78.471 E15.23649
G1 X122.314 Y78.643 E15.25224
G1 X121.869 Y78.698 E15.2679
G1 X121.431 Y78.646 E15.28331
G1 X121.025 Y78.473 E15.29872
G1 X120.669 Y78.203 E15.31432
G1 X120.404 Y77.847 E15.32982
G1 X120.234 Y77.442 E15.34516
G1 X120.17 Y77.004 E15.36062
G1 X120.234 Y76.553 E15.37653
G1 X120.401 Y76.155 E15.3916
G1 X120.662 Y75.804 E15.40688
G1 X121.022 Y75.528 E15.42272
G1 X121.432 Y75.358 E15.43822
G1 X121.876 Y75.293 E15.45389
G1 X122.315 Y75.357 E15.46938
G1 X122.728 Y75.522 E15.48491
G1 X123.071 Y75.79 E15.50012
G1 X123.348 Y76.142 E15.51576
G1 X123.523 Y76.559 E15.53155
G1 X123.578 Y77.004 E15.54721
G1 X123.518 Y77.443 E15.56268
G1 X123.348 Y77.847 E15.57799
G1 F1500 E13.57799
G1 F300 Z0.48
G0 F6000 X138.499 Y72.326 Z0.48
G1 F300 Z0.28
G1 F1500 E15.57799
G1 F1200 X138.846 Y72.593 E15.59328
G1 X139.12 Y72.946 E15.60889
G1 X139.29 Y73.356 E15.62439
G1 X139.35 Y73.8 E15.64004
G1 X139.291 Y74.239 E15.6555
G1 X139.12 Y74.653 E15.67115
G1 X138.85 Y75.009 E15.68675
G1 X138.488 Y75.276 E15.70246
G1 X138.089 Y75.447 E15.71762
G1 X137.645 Y75.502 E15.73325
G1 X137.205 Y75.447 E15.74873
G1 X136.808 Y75.276 E15.76383
G1 X136.443 Y75.001 E15.77979
G1 X136.17 Y74.651 E15.79529
G1 X136 Y74.234 E15.81102
G1 X135.946 Y73.796 E15.82643
G1 X136.001 Y73.373 E15.84132
G1 X136.17 Y72.957 E15.85701
G1 X136.444 Y72.598 E15.87278
G1 X136.798 Y72.326 E15.88837
G1 X137.206 Y72.153 E15.90384
G1 X137.648 Y72.098 E15.9194
G1 X138.09 Y72.157 E15.93497
G1 X138.499 Y72.326 E15.95043
G1 F1500 E13.95043
G1 F300 Z0.48
G0 F6000 X145.993 Y73.8 Z0.48
G1 F300 Z0.28
G1 F1500 E15.95043
G1 F1200 X146.058 Y73.356 E15.9661
G1 X146.228 Y72.946 E15.9816
G1 X146.502 Y72.593 E15.9972
G1 X146.843 Y72.326 E16.01233
G1 X147.26 Y72.153 E16.0281
G1 X147.699 Y72.093 E16.04357
G1 X148.159 Y72.163 E16.05982
G1 X148.564 Y72.334 E16.07517
G1 X148.911 Y72.599 E16.09042
G1 X149.179 Y72.966 E16.10629
G1 X149.349 Y73.362 E16.12134
G1 X149.398 Y73.83 E16.13777
G1 X149.347 Y74.24 E16.1522
G1 X149.17 Y74.65 E16.1678
G1 X148.91 Y75.001 E16.18305
G1 X148.556 Y75.27 E16.19858
G1 X148.141 Y75.446 E16.21432
G1 X147.698 Y75.502 E16.22992
G1 X147.253 Y75.442 E16.2456
G1 X146.86 Y75.276 E16.2605
G1 X146.498 Y75.009 E16.27621
G1 X146.228 Y74.653 E16.29181
G1 X146.057 Y74.239 E16.30745
G1 X145.993 Y73.8 E16.32295
G1 F1500 E14.32295
G1 F300 Z0.48
G0 F6000 X155.801 Y87.35 Z0.48
G1 F300 Z0.28
G1 F1500 E16.32295
G1 F1200 X155.266 Y87.283 E16.34178
G1 X154.778 Y87.08 E16.36023
G1 X154.36 Y86.758 E16.37866
G1 X154.013 Y86.306 E16.39856
G1 X153.813 Y85.815 E16.41708
G1 X153.746 Y85.303 E16.43511
G1 X153.813 Y84.762 E16.45415
G1 X154.035 Y84.252 E16.47357
G1 X154.349 Y83.844 E16.49155
G1 X154.757 Y83.532 E16.50949
G1 X155.267 Y83.313 E16.52887
G1 X155.801 Y83.246 E16.54767
G1 X156.33 Y83.313 E16.56629
G1 X156.825 Y83.519 E16.58502
G1 X157.249 Y83.847 E16.60374
G1 X157.578 Y84.273 E16.62253
G1 X157.783 Y84.766 E16.64118
G1 X157.851 Y85.296 E16.65984
G1 X157.784 Y85.828 E16.67857
G1 X157.578 Y86.323 E16.69729
G1 X157.249 Y86.749 E16.71609
G1 X156.825 Y87.077 E16.73481
G1 X156.33 Y87.283 E16.75353
G1 X155.801 Y87.35 E16.77216
G1 F1500 E14.77216
G1 F300 Z0.48
G0 F6000 X148.796 Y111.471 Z0.48
G1 F300 Z0.28
G1 F1500 E16.77216
G1 F1200 X148.366 Y111.649 E16.78841
G1 X147.966 Y111.698 E16.80248
G1 X147.502 Y111.642 E16.8188
G1 X147.108 Y111.476 E16.83374
G1 X146.753 Y111.21 E16.84923
G1 X146.475 Y110.852 E16.86506
G1 X146.305 Y110.436 E16.88075
G1 X146.246 Y110 E16.89612
G1 X146.305 Y109.559 E16.91165
G1 X146.476 Y109.147 E16.92723
G1 X146.751 Y108.792 E16.94292
G1 X147.11 Y108.519 E16.95867
G1 X147.483 Y108.364 E16.97277
G1 X147.937 Y108.294 E16.98881
G1 X148.369 Y108.352 E17.00404
G1 X148.796 Y108.525 E17.02013
G1 X149.15 Y108.796 E17.0357
G1 X149.422 Y109.149 E17.05126
G1 X149.592 Y109.56 E17.06679
G1 X149.65 Y110 E17.08229
G1 X149.592 Y110.435 E17.09762
G1 X149.422 Y110.85 E17.11328
G1 X149.153 Y111.207 E17.12889
G1 X148.796 Y111.471 E17.1444
G1 F1500 E15.1444
G1 F300 Z0.48
G0 F6000 X139.706 Y108.298 Z0.48
G1 F300 Z0.28
G1 F1500 E17.1444
G1 F1200 X140.133 Y108.352 E17.15943
G1 X140.552 Y108.523 E17.17523
G1 X140.897 Y108.792 E17.19051
G1 X141.168 Y109.147 E17.20611
G1 X141.343 Y109.559 E17.22174
G1 X141.402 Y110 E17.23728
G1 X141.343 Y110.436 E17.25264
G1 X141.169 Y110.852 E17.26839
G1 X140.895 Y111.21 E17.28413
G1 X140.565 Y111.461 E17.29861
G1 X140.132 Y111.648 E17.31509
G1 X139.705 Y111.698 E17.3301
G1 X139.278 Y111.648 E17.34511
G1 X138.849 Y111.474 E17.36128
G1 X138.508 Y111.213 E17.37628
G1 X138.224 Y110.855 E17.39224
G1 X138.053 Y110.437 E17.40801
G1 X137.998 Y110.018 E17.42277
G1 X138.052 Y109.561 E17.43884
G1 X138.224 Y109.146 E17.45453
G1 X138.482 Y108.813 E17.46924
G1 X138.847 Y108.523 E17.48552
G1 X139.279 Y108.352 E17.50174
G1 X139.706 Y108.298 E17.51678
G1 F1500 E15.51678
G1 F300 Z0.48
G0 F6000 X153.749 Y134.69 Z0.48
G1 F300 Z0.28
G1 F1500 E17.51678
G1 F1200 X153.813 Y134.181 E17.53469
G1 X154.018 Y133.673 E17.55382
G1 X154.366 Y133.233 E17.57341
G1 X154.779 Y132.915 E17.59162
G1 X155.263 Y132.718 E17.60987
G1 X155.799 Y132.646 E17.62875
G1 X156.33 Y132.713 E17.64744
G1 X156.825 Y132.919 E17.66617
G1 X157.249 Y133.247 E17.68489
G1 X157.578 Y133.673 E17.70369
G1 X157.783 Y134.166 E17.72233
G1 X157.851 Y134.696 E17.74099
G1 X157.784 Y135.228 E17.75972
G1 X157.578 Y135.723 E17.77844
G1 X157.249 Y136.149 E17.79724
G1 X156.825 Y136.477 E17.81596
G1 X156.33 Y136.683 E17.83469
G1 X155.801 Y136.75 E17.85331
G1 X155.267 Y136.683 E17.8721
G1 X154.776 Y136.475 E17.89073
G1 X154.343 Y136.144 E17.90976
G1 X154.015 Y135.717 E17.92856
G1 X153.812 Y135.211 E17.9476
G1 X153.749 Y134.69 E17.96593
G1 F1500 E15.96593
G1 F300 Z0.48
G0 F6000 X149.347 Y146.64 Z0.48
G1 F300 Z0.28
G1 F1500 E17.96593
G1 F1200 X149.166 Y147.057 E17.98181
G1 X148.901 Y147.404 E17.99706
G1 X148.563 Y147.662 E18.01191
G1 X148.119 Y147.848 E18.02872
G1 X147.702 Y147.902 E18.0434
G1 X147.261 Y147.847 E18.05892
G1 X146.87 Y147.681 E18.07376
G1 X146.502 Y147.407 E18.08978
G1 X146.228 Y147.053 E18.10541
G1 X146.057 Y146.639 E18.12106
G1 X145.993 Y146.2 E18.13655
G1 X146.058 Y145.756 E18.15222
G1 X146.228 Y145.346 E18.16772
G1 X146.481 Y145.014 E18.1823
G1 X146.862 Y144.719 E18.19913
G1 X147.273 Y144.553 E18.21461
G1 X147.699 Y144.497 E18.22961
G1 X148.142 Y144.555 E18.24521
G1 X148.557 Y144.726 E18.26089
G1 X148.914 Y145.008 E18.27678
G1 X149.17 Y145.349 E18.29167
G1 X149.343 Y145.758 E18.30718
G1 X149.402 Y146.2 E18.32275
G1 X149.347 Y146.64 E18.33824
G1 F1500 E16.33824
G1 F300 Z0.48
G0 F6000 X138.093 Y144.554 Z0.48
G1 F300 Z0.28
G1 F1500 E18.33824
G1 F1200 X138.501 Y144.724 E18.35367
G1 X138.867 Y145.014 E18.36998
G1 X139.12 Y145.346 E18.38456
G1 X139.29 Y145.756 E18.40006
G1 X139.35 Y146.2 E18.4157
G1 X139.291 Y146.639 E18.43117
G1 X139.12 Y147.053 E18.44682
G1 X138.853 Y147.407 E18.4623
G1 X138.499 Y147.67 E18.4777
G1 X138.09 Y147.843 E18.49321
G1 X137.648 Y147.898 E18.50877
G1 X137.206 Y147.843 E18.52432
G1 X136.797 Y147.669 E18.53984
G1 X136.443 Y147.407 E18.55522
G1 X136.169 Y147.041 E18.57119
G1 X135.999 Y146.629 E18.58676
G1 X135.95 Y146.187 E18.60229
G1 X136.001 Y145.76 E18.61731
G1 X136.174 Y145.343 E18.63307
G1 X136.456 Y144.987 E18.64893
G1 X136.81 Y144.719 E18.66444
G1 X137.222 Y144.553 E18.67995
G1 X137.648 Y144.494 E18.69497
G1 X138.093 Y144.554 E18.71065
G1 F1500 E16.71065
G1 F300 Z0.48
G0 F6000 X120.17 Y142.996 Z0.48
G1 F300 Z0.28
G1 F1500 E18.71065
G1 F1200 X120.234 Y142.554 E18.72625
G1 X120.404 Y142.149 E18.74159
G1 X120.669 Y141.793 E18.75709
G1 X121.026 Y141.522 E18.77274
G1 X121.433 Y141.353 E18.78813
G1 X121.868 Y141.298 E18.80344
G1 X122.314 Y141.357 E18.81915
G1 X122.733 Y141.526 E18.83493
G1 X123.083 Y141.801 E18.85048
G1 X123.353 Y142.158 E18.86611
G1 X123.518 Y142.554 E18.88109
G1 X123.578 Y142.997 E18.8967
G1 X123.523 Y143.437 E18.91219
G1 X123.341 Y143.859 E18.92824
G1 X123.079 Y144.208 E18.94348
G1 X122.726 Y144.474 E18.95891
G1 X122.315 Y144.643 E18.97443
G1 X121.876 Y144.702 E18.9899
G1 X121.432 Y144.642 E19.00555
G1 X121.022 Y144.468 E19.0211
G1 X120.662 Y144.192 E19.03695
G1 X120.401 Y143.841 E19.05222
G1 X120.231 Y143.441 E19.0674
G1 X120.17 Y142.996 E19.08309
G1 F1500 E17.08309
G1 F300 Z0.48
G0 F6000 X118.409 Y134.548 Z0.48
G1 F300 Z0.28
G1 F1500 E19.08309
G1 F1200 X116.357 Y135.157 E19.15784
G1 X114.245 Y135.599 E19.23319
G1 X112.153 Y135.861 E19.30682
G1 X109.982 Y135.946 E19.3827
G1 X107.828 Y135.859 E19.45799
G1 X105.715 Y135.593 E19.53236
G1 X103.577 Y135.141 E19.60868
G1 X101.568 Y134.542 E19.68189
G1 X99.57 Y133.761 E19.75681
