;FLAVOR:Marlin
;TIME:10746
;Filament used: 8.10256m
;Layer height: 0.28
;MINX:56.461
;MINY:68.95
;MINZ:0.28
;MAXX:165.383
;MAXY:170.14
;MAXZ:23.16
;TARGET_MACHINE.NAME:Artillery Genius
;Generated with Cura_SteamEngine 5.8.1
M140 S60
M105
M190 S60
M104 S210
M105
M109 S210
M82 ;absolute extrusion mode
G28 ; home all axes
 M117 Purge extruder
 G92 E0 ; reset extruder
 G1 Z1.0 F3000 ; move z up little to prevent scratching of surface
 G1 X2 Y20 Z0.3 F5000.0 ; move to start-line position
 G1 X2 Y200.0 Z0.3 F1500.0 E15 ; draw 1st line
 G1 X2 Y200.0 Z0.4 F5000.0 ; move to side a little
 G1 X2 Y20 Z0.4 F1500.0 E30 ; draw 2nd line
 G92 E0 ; reset extruder
 G1 Z1.0 F3000 ; move z up little to prevent scratching of surface
G92 E0
G92 E0
G1 F1500 E-2
;LAYER_COUNT:82
;LAYER:0
M107
G1 F300 Z0.48
G0 F6000 X63.784 Y72.109 Z0.48
;TYPE:SKIRT
G1 F300 Z0.28
G1 F1500 E0
G1 F1200 X64.558 Y71.42 E0.03619
G1 X65.324 Y70.852 E0.06949
G1 X66.183 Y70.327 E0.10465
G1 X66.99 Y69.925 E0.13614
G1 X67.978 Y69.54 E0.17317
G1 X68.843 Y69.287 E0.20464
G1 X69.898 Y69.079 E0.24219
G1 X71.172 Y68.965 E0.28686
G1 X71.809 Y68.95 E0.30912
G1 X147.805 Y68.95 E2.96314
G1 X148.691 Y68.964 E2.99408
G1 X149.67 Y69.023 E3.02833
G1 X150.613 Y69.165 E3.06164
G1 X151.513 Y69.381 E3.09396
G1 X152.52 Y69.72 E3.13107
G1 X153.393 Y70.106 E3.1644
G1 X154.275 Y70.594 E3.19961
G1 X155.044 Y71.112 E3.23199
G1 X155.807 Y71.729 E3.26625
G1 X156.548 Y72.449 E3.30234
G1 X157.137 Y73.13 E3.33378
G1 X157.757 Y73.991 E3.37083
G1 X158.262 Y74.849 E3.4056
G1 X158.79 Y76.003 E3.44992
G1 X159.597 Y78.162 E3.53042
G1 X160.509 Y80.426 E3.61566
G1 X161.916 Y83.625 E3.7377
G1 X162.361 Y84.585 E3.77466
G1 X162.766 Y85.603 E3.81292
G1 X162.91 Y86.03 E3.82866
G1 X163.183 Y86.986 E3.86338
G1 X163.417 Y88.299 E3.90995
G1 X163.471 Y88.783 E3.92696
G1 X163.537 Y89.754 E3.96095
G1 X163.53 Y90.486 E3.98652
G1 X163.476 Y91.721 E4.02969
G1 X163.399 Y94.362 E4.12196
G1 X163.396 Y96.879 E4.20986
G1 X163.465 Y99.36 E4.29654
G1 X163.606 Y101.895 E4.3852
G1 X163.813 Y104.38 E4.47229
G1 X164.093 Y106.868 E4.55973
G1 X164.445 Y109.356 E4.64748
G1 X164.886 Y111.945 E4.7392
G1 X165.161 Y113.421 E4.79163
G1 X165.281 Y114.255 E4.82106
G1 X165.325 Y114.683 E4.83608
G1 X165.383 Y115.682 E4.87103
G1 X165.319 Y116.992 E4.91683
G1 X165.256 Y117.538 E4.93603
G1 X165.1 Y118.506 E4.97027
G1 X164.881 Y119.38 E5.00174
G1 X164.557 Y120.348 E5.03739
G1 X164.161 Y121.319 E5.07401
G1 X163.855 Y121.976 E5.09932
G1 X162.771 Y124.394 E5.19186
G1 X161.801 Y126.732 E5.28026
G1 X160.68 Y129.675 E5.39024
G1 X160.297 Y130.577 E5.42446
G1 X159.875 Y131.373 E5.45593
G1 X159.297 Y132.262 E5.49296
G1 X158.723 Y132.991 E5.52536
G1 X158.052 Y133.706 E5.55961
G1 X157.28 Y134.393 E5.5957
G1 X156.54 Y134.942 E5.62788
G1 X155.996 Y135.29 E5.65043
G1 X154.531 Y136.164 E5.71
G1 X152.342 Y137.521 E5.79995
G1 X150.284 Y138.882 E5.88612
G1 X148.193 Y140.352 E5.97538
G1 X146.174 Y141.856 E6.0633
G1 X144.215 Y143.405 E6.15052
G1 X142.27 Y145.034 E6.23912
G1 X140.415 Y146.678 E6.32568
G1 X138.553 Y148.425 E6.41485
G1 X136.768 Y150.197 E6.50269
G1 X135.066 Y151.987 E6.58895
G1 X133.367 Y153.877 E6.6777
G1 X131.715 Y155.824 E6.76688
G1 X130.17 Y157.75 E6.85311
G1 X128.614 Y159.809 E6.94324
G1 X127.189 Y161.808 E7.02897
G1 X125.744 Y163.963 E7.11958
G1 X125.007 Y165.107 E7.16711
G1 X124.486 Y165.841 E7.19854
G1 X123.832 Y166.608 E7.23374
G1 X123.092 Y167.331 E7.26987
G1 X122.333 Y167.95 E7.30408
G1 X121.565 Y168.471 E7.33649
G1 X120.66 Y168.974 E7.37265
G1 X119.766 Y169.371 E7.40681
G1 X118.914 Y169.665 E7.43828
G1 X117.961 Y169.902 E7.47258
G1 X116.921 Y170.064 E7.50934
G1 X116.13 Y170.122 E7.53704
G1 X115.461 Y170.139 E7.56041
G1 X103.294 Y170.139 E7.98532
G1 X101.098 Y170.106 E8.06202
G1 X98.478 Y170.108 E8.15352
G1 X96.932 Y170.14 E8.20752
G1 X84.798 Y170.139 E8.63128
G1 X84.06 Y170.126 E8.65705
G1 X83.081 Y170.067 E8.69131
G1 X82.138 Y169.925 E8.72461
G1 X81.237 Y169.709 E8.75697
G1 X80.231 Y169.37 E8.79404
G1 X79.358 Y168.984 E8.82738
G1 X78.476 Y168.496 E8.86258
G1 X77.706 Y167.977 E8.89501
G1 X76.944 Y167.361 E8.92923
G1 X76.203 Y166.641 E8.96531
G1 X75.562 Y165.897 E8.9996
G1 X75.036 Y165.166 E9.03106
G1 X74.495 Y164.256 E9.06803
G1 X74.106 Y163.444 E9.09947
G1 X73.731 Y162.432 E9.13716
G1 X73.402 Y161.141 E9.18369
G1 X72.969 Y158.862 E9.2647
G1 X72.433 Y156.386 E9.35318
G1 X72.105 Y155.015 E9.40241
G1 X71.338 Y151.566 E9.5258
G1 X70.721 Y149.149 E9.61291
G1 X70.023 Y146.708 E9.70158
G1 X69.265 Y144.311 E9.78938
G1 X68.439 Y141.936 E9.87719
G1 X67.545 Y139.588 E9.96493
G1 X66.591 Y137.277 E10.05225
G1 X65.555 Y134.957 E10.14098
G1 X64.478 Y132.717 E10.22778
G1 X63.494 Y130.791 E10.30331
G1 X63.005 Y129.674 E10.3459
G1 X62.244 Y127.639 E10.42177
G1 X61.333 Y125.376 E10.50697
G1 X59.916 Y122.159 E10.62973
G1 X59.485 Y121.218 E10.66587
G1 X59.089 Y120.233 E10.70295
G1 X58.944 Y119.81 E10.71857
G1 X58.688 Y118.946 E10.75004
G1 X58.425 Y117.491 E10.80167
G1 X58.372 Y117.011 E10.81854
G1 X58.307 Y116.043 E10.85242
G1 X58.314 Y115.324 E10.87753
G1 X58.368 Y114.088 E10.92074
G1 X58.445 Y111.443 E11.01315
G1 X58.448 Y108.926 E11.10105
G1 X58.379 Y106.443 E11.1878
G1 X58.238 Y103.914 E11.27625
G1 X58.027 Y101.395 E11.36453
G1 X57.749 Y98.914 E11.45172
G1 X57.395 Y96.42 E11.53969
G1 X56.953 Y93.832 E11.63138
G1 X56.683 Y92.38 E11.68296
G1 X56.561 Y91.524 E11.71316
G1 X56.516 Y91.088 E11.72846
G1 X56.461 Y90.092 E11.7633
G1 X56.531 Y88.74 E11.81058
G1 X56.59 Y88.24 E11.82816
G1 X56.748 Y87.273 E11.86238
G1 X56.97 Y86.399 E11.89387
G1 X57.311 Y85.393 E11.93097
G1 X57.696 Y84.457 E11.96631
G1 X57.984 Y83.839 E11.99012
G1 X59.073 Y81.411 E12.08306
G1 X60.043 Y79.073 E12.17145
G1 X60.878 Y76.897 E12.25285
G1 X61.159 Y76.14 E12.28105
G1 X61.542 Y75.237 E12.3153
G1 X61.964 Y74.441 E12.34677
G1 X62.542 Y73.553 E12.38377
G1 X63.132 Y72.804 E12.41707
G1 X63.784 Y72.109 E12.45035
G0 F6000 X64.003 Y72.314
G1 F1200 X64.737 Y71.661 E12.48466
G1 X65.503 Y71.093 E12.51796
G1 X66.317 Y70.596 E12.55127
G1 X67.124 Y70.194 E12.58276
G1 X68.062 Y69.828 E12.61792
G1 X68.927 Y69.575 E12.64939
G1 X69.925 Y69.378 E12.68492
G1 X71.179 Y69.265 E12.72889
G1 X71.816 Y69.25 E12.75114
G1 X147.801 Y69.25 E15.40478
G1 X148.673 Y69.263 E15.43523
G1 X149.625 Y69.32 E15.46854
G1 X150.568 Y69.462 E15.50184
G1 X151.443 Y69.673 E15.53328
G1 X152.399 Y69.995 E15.56851
G1 X153.248 Y70.369 E15.60091
G1 X154.107 Y70.843 E15.63517
G1 X154.876 Y71.361 E15.66755
G1 X155.598 Y71.944 E15.69996
G1 X156.321 Y72.645 E15.73513
G1 X156.91 Y73.326 E15.76657
G1 X157.499 Y74.143 E15.80174
G1 X157.989 Y74.974 E15.83544
G1 X158.517 Y76.128 E15.87975
G1 X159.319 Y78.274 E15.95976
G1 X160.234 Y80.547 E16.04533
G1 X161.642 Y83.746 E16.16739
G1 X162.082 Y84.696 E16.20396
G1 X162.482 Y85.699 E16.24167
G1 X162.622 Y86.113 E16.25693
G1 X162.888 Y87.039 E16.29058
G1 X163.119 Y88.333 E16.33648
G1 X163.172 Y88.804 E16.35303
G1 X163.237 Y89.751 E16.38618
G1 X163.23 Y90.473 E16.4114
G1 X163.176 Y91.708 E16.45457
G1 X163.099 Y94.353 E16.54698
G1 X163.096 Y96.879 E16.6352
G1 X163.165 Y99.377 E16.72247
G1 X163.306 Y101.912 E16.81114
G1 X163.515 Y104.414 E16.89882
G1 X163.796 Y106.91 E16.98654
G1 X164.149 Y109.406 E17.07457
G1 X164.591 Y112 E17.16647
G1 X164.864 Y113.464 E17.21848
G1 X164.983 Y114.286 E17.24748
G1 X165.026 Y114.701 E17.26206
G1 X165.083 Y115.667 E17.29585
G1 X165.019 Y116.977 E17.34165
G1 X164.96 Y117.491 E17.35972
G1 X164.809 Y118.433 E17.39304
G1 X164.59 Y119.307 E17.42451
G1 X164.279 Y120.235 E17.45869
G1 X163.889 Y121.192 E17.49478
G1 X163.583 Y121.849 E17.52009
G1 X162.497 Y124.271 E17.61278
G1 X161.524 Y126.617 E17.70148
G1 X160.404 Y129.558 E17.81139
G1 X160.032 Y130.436 E17.84469
G1 X159.61 Y131.232 E17.87615
G1 X159.061 Y132.076 E17.91131
G1 X158.487 Y132.805 E17.94372
G1 X157.833 Y133.501 E17.97707
G1 X157.101 Y134.152 E18.01128
G1 X156.378 Y134.689 E18.04273
G1 X155.842 Y135.032 E18.06496
G1 X154.377 Y135.906 E18.12453
G1 X152.184 Y137.266 E18.21465
G1 X150.111 Y138.637 E18.30145
G1 X148.014 Y140.111 E18.39096
G1 X145.995 Y141.615 E18.47889
G1 X144.022 Y143.175 E18.56673
G1 X142.077 Y144.804 E18.65533
G1 X140.21 Y146.459 E18.74246
G1 X138.348 Y148.206 E18.83163
G1 X136.557 Y149.984 E18.91976
G1 X134.843 Y151.786 E19.00661
G1 X133.144 Y153.676 E19.09537
G1 X131.486 Y155.63 E19.18486
G1 X129.936 Y157.562 E19.27136
G1 X128.375 Y159.628 E19.36179
G1 X126.945 Y161.634 E19.44783
G1 X125.495 Y163.796 E19.53874
G1 X124.762 Y164.933 E19.58598
G1 X124.241 Y165.667 E19.61742
G1 X123.622 Y166.394 E19.65076
G1 X122.902 Y167.099 E19.68596
G1 X122.164 Y167.702 E19.71924
G1 X121.419 Y168.209 E19.75071
G1 X120.538 Y168.7 E19.78593
G1 X119.668 Y169.087 E19.81919
G1 X118.816 Y169.381 E19.85066
G1 X117.889 Y169.611 E19.88402
G1 X116.899 Y169.765 E19.91901
G1 X116.122 Y169.822 E19.94622
G1 X115.453 Y169.839 E19.96959
G1 X103.299 Y169.839 E20.39404
G1 X101.103 Y169.806 E20.47074
G1 X98.472 Y169.808 E20.56263
G1 X96.932 Y169.84 E20.61642
G1 X84.803 Y169.839 E21.04
G1 X84.078 Y169.827 E21.06532
G1 X83.126 Y169.77 E21.09863
G1 X82.183 Y169.628 E21.13193
G1 X81.307 Y169.417 E21.1634
G1 X80.352 Y169.095 E21.1986
G1 X79.503 Y168.721 E21.231
G1 X78.644 Y168.247 E21.26526
G1 X77.874 Y167.728 E21.29769
G1 X77.153 Y167.146 E21.33005
G1 X76.43 Y166.445 E21.36522
G1 X75.806 Y165.722 E21.39857
G1 X75.28 Y164.991 E21.43002
G1 X74.766 Y164.126 E21.46516
G1 X74.377 Y163.314 E21.4966
G1 X74.022 Y162.358 E21.53222
G1 X73.697 Y161.085 E21.5781
G1 X73.264 Y158.806 E21.65912
G1 X72.725 Y156.316 E21.74809
G1 X72.398 Y154.95 E21.79714
G1 X71.631 Y151.501 E21.92053
G1 X71.012 Y149.075 E22.00797
G1 X70.311 Y146.625 E22.09697
G1 X69.551 Y144.221 E22.18502
G1 X68.722 Y141.837 E22.27316
G1 X67.825 Y139.481 E22.3612
G1 X66.865 Y137.155 E22.44908
G1 X65.829 Y134.835 E22.53782
G1 X64.745 Y132.58 E22.62519
G1 X63.769 Y130.67 E22.7001
G1 X63.286 Y129.569 E22.74209
G1 X62.525 Y127.534 E22.81796
G1 X61.608 Y125.255 E22.90375
G1 X60.191 Y122.038 E23.02652
G1 X59.763 Y121.106 E23.06233
G1 X59.373 Y120.136 E23.09885
G1 X59.232 Y119.725 E23.11402
G1 X58.976 Y118.861 E23.14549
G1 X58.723 Y117.458 E23.19528
G1 X58.671 Y116.991 E23.21169
G1 X58.607 Y116.046 E23.24477
G1 X58.614 Y115.337 E23.26953
G1 X58.668 Y114.101 E23.31273
G1 X58.745 Y111.452 E23.40528
G1 X58.748 Y108.926 E23.4935
G1 X58.679 Y106.426 E23.58084
G1 X58.538 Y103.897 E23.6693
G1 X58.326 Y101.37 E23.75786
G1 X58.047 Y98.881 E23.84533
G1 X57.692 Y96.378 E23.93362
G1 X57.249 Y93.782 E24.02559
G1 X56.98 Y92.337 E24.07692
G1 X56.859 Y91.494 E24.10666
G1 X56.816 Y91.071 E24.12151
G1 X56.761 Y90.107 E24.15523
G1 X56.829 Y88.775 E24.20181
G1 X56.886 Y88.288 E24.21893
G1 X57.039 Y87.347 E24.25222
G1 X57.261 Y86.473 E24.28372
G1 X57.589 Y85.507 E24.31934
G1 X57.968 Y84.584 E24.35419
G1 X58.256 Y83.966 E24.378
G1 X59.347 Y81.534 E24.47109
G1 X60.32 Y79.188 E24.55979
G1 X61.158 Y77.004 E24.64148
G1 X61.435 Y76.257 E24.6693
G1 X61.807 Y75.378 E24.70264
G1 X62.229 Y74.582 E24.7341
G1 X62.778 Y73.739 E24.76923
G1 X63.368 Y72.99 E24.80253
G1 X64.003 Y72.314 E24.83492
G0 F6000 X64.222 Y72.519
G1 F1200 X64.916 Y71.902 E24.86735
G1 X65.66 Y71.349 E24.89973
G1 X66.451 Y70.865 E24.93211
G1 X67.258 Y70.463 E24.9636
G1 X68.146 Y70.116 E24.99689
G1 X69.011 Y69.863 E25.02837
G1 X69.952 Y69.677 E25.06186
G1 X71.186 Y69.565 E25.10514
G1 X71.823 Y69.55 E25.12739
G1 X147.797 Y69.55 E27.78064
G1 X148.655 Y69.562 E27.81061
G1 X149.581 Y69.617 E27.843
G1 X150.498 Y69.754 E27.87538
G1 X151.373 Y69.965 E27.90682
G1 X152.278 Y70.27 E27.94017
G1 X153.103 Y70.632 E27.97163
G1 X153.939 Y71.092 E28.00496
G1 X154.708 Y71.61 E28.03734
G1 X155.409 Y72.177 E28.06882
G1 X156.094 Y72.841 E28.10214
G1 X156.683 Y73.522 E28.13358
G1 X157.241 Y74.296 E28.16691
G1 X157.716 Y75.099 E28.19949
G1 X158.237 Y76.236 E28.24317
G1 X158.477 Y76.86 E28.26651
G1 X159.041 Y78.386 E28.32333
G1 X159.959 Y80.668 E28.40923
G1 X161.368 Y83.867 E28.53131
G1 X161.803 Y84.807 E28.56748
G1 X162.198 Y85.796 E28.60467
G1 X162.334 Y86.196 E28.61943
G1 X162.593 Y87.092 E28.652
G1 X162.821 Y88.367 E28.69723
G1 X162.873 Y88.825 E28.71333
G1 X162.937 Y89.748 E28.74564
G1 X162.93 Y90.46 E28.77051
G1 X162.876 Y91.695 E28.81368
G1 X162.799 Y94.344 E28.90623
G1 X162.796 Y96.879 E28.99476
G1 X162.865 Y99.394 E29.08262
G1 X163.006 Y101.929 E29.17129
G1 X163.217 Y104.448 E29.25957
G1 X163.499 Y106.952 E29.34757
G1 X163.853 Y109.456 E29.43589
G1 X164.296 Y112.055 E29.52796
G1 X164.567 Y113.507 E29.57955
G1 X164.685 Y114.317 E29.60813
G1 X164.727 Y114.719 E29.62225
G1 X164.783 Y115.652 E29.65489
G1 X164.719 Y116.962 E29.70069
G1 X164.664 Y117.444 E29.71764
G1 X164.518 Y118.36 E29.75003
G1 X164.299 Y119.234 E29.7815
G1 X164.001 Y120.122 E29.81421
G1 X163.617 Y121.065 E29.84977
G1 X163.311 Y121.722 E29.87508
G1 X162.223 Y124.148 E29.96793
G1 X161.247 Y126.502 E30.05693
G1 X160.401 Y128.706 E30.13937
G1 X160.128 Y129.441 E30.16675
G1 X159.767 Y130.295 E30.19913
G1 X159.345 Y131.091 E30.2306
G1 X158.825 Y131.89 E30.26389
G1 X158.251 Y132.619 E30.29629
G1 X157.615 Y133.295 E30.32871
G1 X156.922 Y133.911 E30.36109
G1 X156.199 Y134.448 E30.39254
G1 X155.688 Y134.774 E30.41371
G1 X154.223 Y135.648 E30.47328
G1 X152.026 Y137.011 E30.56358
G1 X149.945 Y138.388 E30.65072
G1 X147.835 Y139.87 E30.74077
G1 X145.816 Y141.374 E30.82869
G1 X143.829 Y142.945 E30.91715
G1 X141.884 Y144.574 E31.00576
G1 X140.011 Y146.234 E31.09316
G1 X138.143 Y147.987 E31.18262
G1 X136.346 Y149.771 E31.27105
G1 X134.62 Y151.585 E31.3585
G1 X132.921 Y153.475 E31.44725
G1 X131.257 Y155.436 E31.53707
G1 X129.702 Y157.374 E31.62384
G1 X128.136 Y159.447 E31.71457
G1 X126.701 Y161.46 E31.80091
G1 X125.246 Y163.629 E31.89212
G1 X124.517 Y164.759 E31.93908
G1 X123.996 Y165.493 E31.97052
G1 X123.394 Y166.199 E32.00292
G1 X122.712 Y166.867 E32.03626
G1 X121.995 Y167.454 E32.06862
G1 X121.25 Y167.961 E32.10009
G1 X120.416 Y168.426 E32.13344
G1 X119.57 Y168.803 E32.16579
G1 X118.718 Y169.097 E32.19726
G1 X117.817 Y169.32 E32.22968
G1 X116.877 Y169.466 E32.2629
G1 X116.114 Y169.522 E32.28962
G1 X115.445 Y169.539 E32.31299
G1 X103.304 Y169.539 E32.73699
G1 X101.108 Y169.506 E32.81369
G1 X98.466 Y169.508 E32.90596
G1 X96.932 Y169.54 E32.95954
G1 X84.808 Y169.539 E33.38295
G1 X84.096 Y169.528 E33.40782
G1 X83.17 Y169.473 E33.44021
G1 X82.253 Y169.336 E33.47259
G1 X81.377 Y169.125 E33.50406
G1 X80.473 Y168.82 E33.53738
G1 X79.648 Y168.458 E33.56884
G1 X78.812 Y167.998 E33.60217
G1 X78.042 Y167.479 E33.63459
G1 X77.342 Y166.913 E33.66603
G1 X76.657 Y166.249 E33.69935
G1 X76.05 Y165.547 E33.73176
G1 X75.524 Y164.816 E33.76321
G1 X75.037 Y163.996 E33.79652
G1 X74.648 Y163.184 E33.82796
G1 X74.313 Y162.284 E33.8615
G1 X73.992 Y161.029 E33.90674
G1 X73.559 Y158.75 E33.98775
G1 X73.017 Y156.246 E34.07722
G1 X72.691 Y154.885 E34.1261
G1 X71.924 Y151.436 E34.24949
G1 X71.303 Y149.001 E34.33725
G1 X70.597 Y146.534 E34.42686
G1 X69.836 Y144.13 E34.51493
G1 X69.005 Y141.739 E34.60333
G1 X68.105 Y139.374 E34.6917
G1 X67.139 Y137.033 E34.78014
G1 X66.103 Y134.713 E34.86887
G1 X65.012 Y132.443 E34.95683
G1 X64.044 Y130.549 E35.03111
G1 X63.567 Y129.464 E35.0725
G1 X62.806 Y127.429 E35.14838
G1 X61.883 Y125.134 E35.23477
G1 X60.466 Y121.917 E35.35753
G1 X60.041 Y120.994 E35.39302
G1 X59.657 Y120.039 E35.42896
G1 X59.52 Y119.64 E35.4437
G1 X59.264 Y118.776 E35.47517
G1 X59.021 Y117.425 E35.52311
G1 X58.97 Y116.971 E35.53906
G1 X58.907 Y116.049 E35.57133
G1 X58.914 Y115.35 E35.59575
G1 X58.968 Y114.114 E35.63895
G1 X59.045 Y111.461 E35.73164
G1 X59.048 Y108.926 E35.82017
G1 X58.979 Y106.409 E35.90811
G1 X58.838 Y103.88 E35.99657
G1 X58.625 Y101.345 E36.08541
G1 X58.345 Y98.848 E36.17316
G1 X57.989 Y96.336 E36.26176
G1 X57.545 Y93.732 E36.35401
G1 X57.277 Y92.294 E36.4051
G1 X57.157 Y91.463 E36.43442
G1 X57.115 Y91.054 E36.44878
G1 X57.061 Y90.122 E36.48138
G1 X57.127 Y88.81 E36.52726
G1 X57.182 Y88.336 E36.54392
G1 X57.33 Y87.421 E36.57629
G1 X57.552 Y86.547 E36.60779
G1 X57.867 Y85.621 E36.64194
G1 X58.24 Y84.711 E36.67629
G1 X58.528 Y84.093 E36.7001
G1 X59.621 Y81.657 E36.79334
G1 X60.597 Y79.303 E36.88234
